gruvbox_icons/symbolic/categories/emoji-symbols-symbolic.svg

<svg xmlns="http://www.w3.org/2000/svg" width="16" height="16" version="1.1">
 <path style="fill:#cdd3e0" d="M 4.5 1 A 1 1 0 0 0 3.7929688 1.2929688 L 1.2929688 3.7929688 A 1 1 0 0 0 1.2929688 5.2070312 L 3.7929688 7.7070312 A 1 1 0 0 0 5.2070312 7.7070312 L 7.7070312 5.2070312 A 1 1 0 0 0 7.7070312 3.7929688 L 5.2070312 1.2929688 A 1 1 0 0 0 4.5 1 z M 12.441406 2.0019531 A 1.0539922 0.9999998 0 0 0 11.587891 2.4980469 L 9.1425781 6.4980469 A 1.0539922 0.9999998 0 0 0 10.052734 8 L 14.947266 8 A 1.0539922 0.9999998 0 0 0 15.857422 6.4980469 L 13.412109 2.4980469 A 1.0539922 0.9999998 0 0 0 12.443359 2.0019531 L 12.441406 2.0019531 z M 7 9 A 3 3 0 0 0 4 12 A 3 3 0 0 0 7 15 A 3 3 0 0 0 10 12 A 3 3 0 0 0 7 9 z"/>
</svg>

<?xml version="1.0" encoding="UTF-8"?>
<svg height="16px" viewBox="0 0 16 16" width="16px" xmlns="http://www.w3.org/2000/svg">
    <path d="m 4.5 1 c -0.257812 0 -0.511719 0.097656 -0.707031 0.292969 l -2.5 2.5 c -0.390625 0.390625 -0.390625 1.023437 0 1.414062 l 2.5 2.5 c 0.390625 0.390625 1.023437 0.390625 1.414062 0 l 2.5 -2.5 c 0.390625 -0.390625 0.390625 -1.023437 0 -1.414062 l -2.5 -2.5 c -0.195312 -0.195313 -0.449219 -0.292969 -0.707031 -0.292969 z m 7.515625 1 c -0.023437 0 -0.046875 0 -0.070313 0.003906 c -0.335937 0.015625 -0.640624 0.203125 -0.808593 0.496094 l -2.320313 4 c -0.386718 0.664062 0.089844 1.5 0.863282 1.5 h 4.644531 c 0.769531 0 1.246093 -0.835938 0.863281 -1.5 l -2.320312 -4 c -0.179688 -0.308594 -0.503907 -0.496094 -0.851563 -0.5 z m -5.015625 7 c -1.65625 0 -3 1.34375 -3 3 s 1.34375 3 3 3 s 3 -1.34375 3 -3 s -1.34375 -3 -3 -3 z m 0 0" fill="#2e3436"/>
</svg>
